packages/ckeditor5-icons/theme/insert-merge-field.svg

<svg width="20" height="20" viewBox="0 0 20 20" xmlns="http://www.w3.org/2000/svg">
<circle cx="10.0001" cy="9.79993" r="1.5"/>
<path d="M13.2496 2.75005C13.2497 2.00005 13.2498 2.00005 13.2498 2.00005L13.2511 2.00005L13.2534 2.00006L13.2606 2.00009L13.2848 2.0003C13.3052 2.00053 13.3337 2.00098 13.3688 2.00185C13.4386 2.0036 13.536 2.00707 13.6475 2.01402C13.8589 2.02722 14.1651 2.05536 14.4328 2.12276C14.8296 2.22267 15.1705 2.40399 15.4402 2.67392C15.7077 2.94161 15.8688 3.26001 15.9644 3.5803C16.1459 4.18776 16.1145 4.89393 16.0724 5.49256C16.0626 5.6324 16.052 5.76849 16.0416 5.90131C16.0036 6.38849 15.969 6.83163 15.9895 7.25369C16.0151 7.78147 16.1252 8.13279 16.3222 8.3656C16.5447 8.6286 16.8158 8.79405 17.0411 8.89436C17.1523 8.94386 17.2471 8.97509 17.3103 8.99319C17.3417 9.00219 17.3647 9.00776 17.3773 9.01062L17.3868 9.01269L17.9996 9.12173V9.75005H15.5976C15.4541 9.63123 15.3117 9.49364 15.1771 9.33451C14.669 8.73405 14.5235 7.99036 14.4913 7.32643C14.4657 6.79933 14.5105 6.23163 14.5497 5.73429C14.5592 5.61404 14.5683 5.49785 14.5761 5.3874C14.6198 4.76596 14.62 4.32043 14.5272 4.00956C14.4857 3.87069 14.4332 3.78828 14.3791 3.73414C14.3272 3.68223 14.2386 3.6207 14.0665 3.57736C13.9372 3.5448 13.7433 3.52293 13.554 3.51111C13.4651 3.50556 13.3869 3.50277 13.3313 3.50139C13.3037 3.5007 13.282 3.50036 13.2678 3.5002L13.2524 3.50007L13.2493 3.50005L12.4996 3.5L12.4997 2L13.2498 2.00005L13.2496 2.75005Z"/>
<path d="M13.2496 16.7501C13.2497 17.5001 13.2498 17.5001 13.2498 17.5001L13.2511 17.5001L13.2534 17.5001L13.2606 17.5L13.2848 17.4998C13.3052 17.4996 13.3337 17.4991 13.3688 17.4983C13.4386 17.4965 13.536 17.493 13.6475 17.4861C13.8589 17.4729 14.1651 17.4448 14.4328 17.3774C14.8296 17.2774 15.1705 17.0961 15.4402 16.8262C15.7077 16.5585 15.8688 16.2401 15.9644 15.9198C16.1459 15.3124 16.1145 14.6062 16.0724 14.0076C16.0626 13.8677 16.052 13.7316 16.0416 13.5988C16.0036 13.1116 15.969 12.6685 15.9895 12.2464C16.0151 11.7186 16.1252 11.3673 16.3222 11.1345C16.5447 10.8715 16.8158 10.7061 17.0411 10.6058C17.1523 10.5563 17.2471 10.525 17.3103 10.5069C17.3417 10.4979 17.3647 10.4924 17.3773 10.4895L17.3868 10.4874L17.9996 10.3784V9.75005H15.5976C15.4541 9.86887 15.3117 10.0065 15.1771 10.1656C14.669 10.7661 14.5235 11.5098 14.4913 12.1737C14.4657 12.7008 14.5105 13.2685 14.5497 13.7658C14.5592 13.8861 14.5683 14.0023 14.5761 14.1127C14.6198 14.7341 14.62 15.1797 14.5272 15.4906C14.4857 15.6294 14.4332 15.7118 14.3791 15.766C14.3272 15.8179 14.2386 15.8794 14.0665 15.9228C13.9372 15.9553 13.7433 15.9772 13.554 15.989C13.4651 15.9945 13.3869 15.9973 13.3313 15.9987C13.3037 15.9994 13.282 15.9998 13.2678 15.9999L13.2524 16L13.2493 16.0001L12.4996 16.0001L12.4997 17.5001L13.2498 17.5001L13.2496 16.7501Z"/>
<path d="M6.75 2.75005C6.74995 2.00005 6.74982 2.00005 6.74982 2.00005L6.74853 2.00005L6.74622 2.00006L6.73903 2.00009L6.71478 2.0003C6.69446 2.00053 6.66594 2.00098 6.63087 2.00185C6.56099 2.0036 6.46364 2.00707 6.35217 2.01402C6.14071 2.02722 5.83458 2.05536 5.56688 2.12276C5.17006 2.22267 4.82913 2.40399 4.55943 2.67392C4.29196 2.94161 4.13085 3.26001 4.03519 3.5803C3.85377 4.18776 3.88516 4.89393 3.92723 5.49256C3.93706 5.6324 3.94768 5.76849 3.95804 5.90131C3.99605 6.38849 4.03062 6.83163 4.01013 7.25369C3.98451 7.78147 3.87445 8.13279 3.67746 8.3656C3.45492 8.6286 3.18386 8.79405 2.95851 8.89436C2.84732 8.94386 2.75258 8.97509 2.68931 8.99319C2.65789 9.00219 2.63488 9.00776 2.62229 9.01062L2.61279 9.01269L2 9.12173V9.75005H4.40205C4.54555 9.63123 4.6879 9.49364 4.82254 9.33451C5.33063 8.73405 5.47613 7.99036 5.50837 7.32643C5.53396 6.79933 5.48918 6.23163 5.44995 5.73429C5.44047 5.61404 5.4313 5.49785 5.42354 5.3874C5.37987 4.76596 5.37961 4.32043 5.47246 4.00956C5.51394 3.87069 5.56644 3.78828 5.62053 3.73414C5.6724 3.68223 5.76099 3.6207 5.93312 3.57736C6.06245 3.5448 6.25632 3.52293 6.4456 3.51111C6.5345 3.50556 6.61271 3.50277 6.6683 3.50139C6.69595 3.5007 6.71765 3.50036 6.73185 3.5002L6.74724 3.50007L6.75029 3.50005L7.50005 3.5L7.49995 2L6.74982 2.00005L6.75 2.75005Z"/>
<path d="M6.75 16.7501C6.74995 17.5001 6.74982 17.5001 6.74982 17.5001L6.74853 17.5001L6.74622 17.5001L6.73903 17.5L6.71478 17.4998C6.69446 17.4996 6.66594 17.4991 6.63087 17.4983C6.56099 17.4965 6.46364 17.493 6.35217 17.4861C6.14071 17.4729 5.83458 17.4448 5.56688 17.3774C5.17006 17.2774 4.82913 17.0961 4.55943 16.8262C4.29196 16.5585 4.13085 16.2401 4.03519 15.9198C3.85377 15.3124 3.88516 14.6062 3.92723 14.0076C3.93706 13.8677 3.94768 13.7316 3.95804 13.5988C3.99605 13.1116 4.03062 12.6685 4.01013 12.2464C3.98451 11.7186 3.87445 11.3673 3.67746 11.1345C3.45492 10.8715 3.18386 10.7061 2.95851 10.6058C2.84732 10.5563 2.75258 10.525 2.68931 10.5069C2.65789 10.4979 2.63488 10.4924 2.62229 10.4895L2.61279 10.4874L2 10.3784V9.75005H4.40205C4.54555 9.86887 4.6879 10.0065 4.82254 10.1656C5.33063 10.7661 5.47613 11.5098 5.50837 12.1737C5.53396 12.7008 5.48918 13.2685 5.44995 13.7658C5.44047 13.8861 5.4313 14.0023 5.42354 14.1127C5.37987 14.7341 5.37961 15.1797 5.47246 15.4906C5.51394 15.6294 5.56644 15.7118 5.62053 15.766C5.6724 15.8179 5.76099 15.8794 5.93312 15.9228C6.06245 15.9553 6.25632 15.9772 6.4456 15.989C6.5345 15.9945 6.61271 15.9973 6.6683 15.9987C6.69595 15.9994 6.71765 15.9998 6.73185 15.9999L6.74724 16L6.75029 16.0001L7.50005 16.0001L7.49995 17.5001L6.74982 17.5001L6.75 16.7501Z"/>
</svg>

<svg viewBox="0 0 20 20" xmlns="http://www.w3.org/2000/svg"><circle cx="10.0001" cy="9.79993" r="1.5"/><path d="M13.25 2.75V2h.035a6.272 6.272 0 0 1 .363.014c.21.013.517.041.785.109.397.1.738.281 1.007.55.268.269.429.587.524.907.182.608.15 1.314.108 1.913l-.03.408c-.038.487-.073.93-.053 1.353.026.527.136.879.333 1.112.223.263.494.428.72.528a2.077 2.077 0 0 0 .335.117l.01.002.613.109v.628h-2.402a3.34 3.34 0 0 1-.42-.415c-.509-.601-.655-1.345-.687-2.009-.025-.527.02-1.094.059-1.592.01-.12.018-.236.026-.347.044-.621.044-1.067-.049-1.377a.63.63 0 0 0-.148-.276.642.642 0 0 0-.313-.157 3.134 3.134 0 0 0-.512-.066 6.026 6.026 0 0 0-.286-.01h-.016L13.25 3.5h-.75V2h.75v.75Z"/><path d="M13.25 16.75v.75h.035a6.852 6.852 0 0 0 .363-.014 4.55 4.55 0 0 0 .785-.109c.397-.1.738-.28 1.007-.55.268-.269.429-.587.524-.907.182-.608.15-1.314.108-1.912l-.03-.41c-.038-.486-.073-.93-.053-1.352.026-.527.136-.879.333-1.112.223-.263.494-.428.72-.528a2.08 2.08 0 0 1 .335-.117l.01-.002.613-.109V9.75h-2.402a3.341 3.341 0 0 0-.42.416c-.509.6-.655 1.344-.687 2.008-.025.527.02 1.095.059 1.592.01.12.018.236.026.347.044.621.044 1.067-.049 1.378a.63.63 0 0 1-.148.275.643.643 0 0 1-.313.157c-.129.032-.323.054-.512.066a6.178 6.178 0 0 1-.286.01l-.016.001H12.5v1.5h.75v-.75Z"/><path d="M6.75 2.75V2h-.035a6.278 6.278 0 0 0-.363.014 4.55 4.55 0 0 0-.785.109 2.13 2.13 0 0 0-1.008.55 2.119 2.119 0 0 0-.524.907c-.181.608-.15 1.314-.108 1.913l.031.408c.038.487.073.93.052 1.353-.025.527-.136.879-.333 1.112a2.013 2.013 0 0 1-.718.528 2.072 2.072 0 0 1-.337.117l-.01.002L2 9.122v.628h2.402c.144-.119.286-.256.42-.415.509-.601.654-1.345.686-2.009.026-.527-.019-1.094-.058-1.592-.01-.12-.019-.236-.026-.347-.044-.621-.044-1.067.048-1.377a.63.63 0 0 1 .149-.276.642.642 0 0 1 .312-.157c.13-.032.323-.054.513-.066a6.027 6.027 0 0 1 .286-.01h.015L6.75 3.5h.75V2h-.75v.75Z"/><path d="M6.75 16.75v.75h-.035a6.86 6.86 0 0 1-.363-.014 4.549 4.549 0 0 1-.785-.109 2.131 2.131 0 0 1-1.008-.55 2.119 2.119 0 0 1-.524-.907c-.181-.608-.15-1.314-.108-1.912l.031-.41c.038-.486.073-.93.052-1.352-.025-.527-.136-.879-.333-1.112a2.013 2.013 0 0 0-.718-.528 2.075 2.075 0 0 0-.337-.117l-.01-.002L2 10.378V9.75h2.402c.144.119.286.257.42.416.509.6.654 1.344.686 2.008.026.527-.019 1.095-.058 1.592-.01.12-.019.236-.026.347-.044.621-.044 1.067.048 1.378a.63.63 0 0 0 .149.275c.051.052.14.113.312.157.13.032.323.054.513.066a6.18 6.18 0 0 0 .286.01l.015.001H7.5v1.5h-.75v-.75Z"/></svg>
